X: 476
%
U:~=!turn!
T: Mrs. Haswell
C:Duncan McIntyre
O:Scotland
B:Keith Norman MacDonald : "The Skye collection of the best reels & strathspeys extant" : 1887
Z:Ralph Palmer
R:Strathspey
M:C
L:1/8
K:F dorian
G | E>GB>c B>GB>c | B<Ge>c B>GBc | E>GB>c B<Ge>c | B<GG>E {DE}[B,2F2] [B,F]G | E>GB>c B>GB>c | B<Ge>c B>G Bc/d/ |
{/d}e>f g/f/e/d/ {/d}ecc{/d}e | B<GG>E {DE}[B,2F2] [B,F] || G/A/ | B<Ge>c BGGc | B<Ge>G B2 Bc | BGB c/d/ e/d/c/B/ {/d}e>c |
B<eG>E {DE}[B,2F2] [B,F]G/A/ | B<Ge>c BGGc | c/B/A/G/ {/G}e>G {/G}B2 Bc/d/ | e>f g/f/e/d/ {/d}ecc{/d}e | B<GG>E {EF}[B,2F2] [B,F] |]


